X: 14871
T: Garry Walsh's
R: jig
M: 6/8
K: Cmajor
|:~c3 BGF|DEF ~G3|DEF GFE|DEF EDC|
c2c BGF|DEF ~G3|DEF GFE|1 ~D3 C3:|2 ~D3 c3||
~d3 f2e|~d2c AGF|DEF GFE|DEF ~G3|
~d3 f2e|~d2c AGF|DEF GFE|~D3 c3|
~d3 f2e|~d2c AGF|DEF ~G3|GAd ~g3|
~d3 f2e|~d2c AGF|DEF GFE|~D3 c3||

